X:1
T:Is Not This the Land of Beulah?
T:Is Not This the Land of Beulah?
T:John William Dadmun
T:Harriet Warner Re Qua, 1882
T:Public Domain Courtesy of the Cyber Hymnal™
T:Public Domain Courtesy of the Cyber Hymnal™
C:John William Dadmun
Z:Public Domain
Z:Courtesy of the Cyber Hymnal™
%%score ( 1 2 ) ( 3 4 )
L:1/8
Q:1/4=100
M:3/4
K:G
V:1 treble 
V:2 treble 
V:3 bass 
V:4 bass 
V:1
 D[DG] | [GB]3 [DG] [DA][DG] | [EG] [CE]3 [EG][CE] | [B,D]3 [B,D] [CE][CG] | [B,G]4 D[DG] | %5
w: 1.~I am|dwell- ing on the|mount- ain, Where the|gold- en sun- light|gleams O’er a|
w: 2.~I can|see far down the|mount- ain, Where I|wan- dered wea- ry|years, Of- ten|
w: 3.~I am|drink- ing at the|fount- ain, Where I|ev- er would a-|bide, For I’ve|
w: 4.~Tell me|not of hea- vy|cross- es, Nor the|bur- dens hard to|bear, For I’ve|
w: 5.~Oh, the|cross has won- drous|glo- ry! Oft I’ve|proved this to be|true; When I’m|
 [GB]3 [DG] [DA][DG] | [EG] [CE]3 [EG][CE] | [B,D]3 [B,D] [CE][CG] |S [B,G]4 [DG][GB] | %9
w: land whose won- drous|beau- ty Far ex-|ceeds my fond- est|dreams, Where the|
w: hin- dered in my|jour- ney, By the|ghosts of doubt and|fears; Brok- en|
w: tast- ed life’s pure|riv- er, And my|soul is sa- tis-|fied; There’s no|
w: found this great sal-|va- tion Makes each|bur- den light ap-|pear; And I|
w: in the way so|nar- row, I can|see a path- way|thro’; And how|
 [Gd]3 [Gd] [Ge][Gd] | [Gd] [GB]3 [DG][GB] | [Gd]3 [Gd] [Ge][Gd] | (d2 B2) D[DG] | %13
w: air is pure, e-|the- real, La- den|with the breath of|flowers, * They are|
w: vows and dis- ap-|point- ments, Thick- ly|sprin- kled all the|way, * But the|
w: thirst- ing for life’s|plea- sures, Nor a-|dorn- ing rich and|gay, * For I’ve|
w: love to fol- low|Je- sus, Glad- ly|count- ing all but|dross, * World- ly|
w: sweet- ly Je- sus|whis- pers: “Take the|cross, thou need’st not|fear, * For I’ve|
 [GB]3 [DG] [DA][DG] | [EG] [CE]3 [EG][CE] | [B,D]3 [B,D] [CE][CG] | [B,G]4!D.S.! |] %17
w: bloom- ing by the|fount- ain, ’Neath the|am- a- ran- thine|bow’rs.|
w: Spir- it led, un-|err- ing, To the|land I hold to-|day.|
w: found a rich- er|trea- sure, One that|fad- eth not a-|way.|
w: hon- ors all for-|sak- ing, For the|glo- ry of the|cross.|
w: tried the way be-|fore thee, And the|glo- ry lin- gers|near.”|
V:2
 D x | x6 | x6 | x6 | x4 D x | x6 | x6 | x6 | x6 | x6 | x6 | x6 | G4 D x | x6 | x6 | x6 | x4 |] %17
V:3
 [G,B,][G,B,] | [G,D]3 [G,B,] [G,C][G,B,] | [C,C] [C,G,]3 [C,G,][C,G,] | %3
w: ~ ~|~ ~ ~ ~|~ ~ ~ ~|
 [G,,G,]3 [G,,G,] [C,G,][C,E,] | [G,,D,]4 [G,B,][G,B,] | [G,D]3 [G,B,] [G,C][G,B,] | %6
w: ~ ~ ~ ~|~ ~ ~|~ ~ ~ ~|
 [C,C] [C,G,]3 [C,G,][C,G,] | [G,,G,]3 [G,,G,] [C,G,][C,E,] | [G,,D,]4 [G,B,][G,D] | %9
w: ~ ~ ~ ~|~ ~ ~ ~|~ D.S.—Is not|
 [G,B,]3 [G,B,] [G,C][G,B,] | [G,B,] [G,D]3 [G,B,][G,D] | [G,B,]3 [G,B,] [G,C][G,B,] | %12
w: this the Land of|Beu- lah? Bless- èd,|bless- èd land of|
 (B,2 D2) [G,B,][G,B,] | [G,D]3 [G,B,] [G,C][G,B,] | [C,C] [C,G,]3 [C,G,][C,G,] | %15
w: light; * Where the|flow- ers bloom for-|ev- er, And the|
 [G,,G,]3 [G,,G,] [C,G,][C,E,] | [G,,D,]4 |] %17
w: sun is al- ways|bright.|
V:4
 x2 | x6 | x6 | x6 | x6 | x6 | x6 | x6 | x6 | x6 | x6 | x6 | G,4 x2 | x6 | x6 | x6 | x4 |] %17

